X: 462
T:Andy McGann's Fancy
M:6/8
L:1/8
R:jig
Z:Thomas A. Madden
N:Posted to the woodenflute mailing list November 2001
K:G
dcA ~G3|AGF G3|dcA G~G2|Ade fde|
dcA ~G3|AGF G2D|1 GBd g2f|ded cAF:|2 GBd ~g2f|dzd cAF||
|:GBd ~g3|agf g3|GBd g2f|dzd cAF|
GBd g3|agf gza|bag agf|ded cAF:|dcA ~G3||
<end>
<start>
